icons/midnadark/emblems/8/emblem-locked.svg

<?xml version="1.0" encoding="UTF-8" standalone="no"?>
<!-- Created with Inkscape (http://www.inkscape.org/) -->

<svg
   xmlns:dc="http://purl.org/dc/elements/1.1/"
   xmlns:cc="http://creativecommons.org/ns#"
   xmlns:rdf="http://www.w3.org/1999/02/22-rdf-syntax-ns#"
   xmlns:svg="http://www.w3.org/2000/svg"
   xmlns="http://www.w3.org/2000/svg"
   xmlns:sodipodi="http://sodipodi.sourceforge.net/DTD/sodipodi-0.dtd"
   xmlns:inkscape="http://www.inkscape.org/namespaces/inkscape"
   width="8"
   height="8"
   id="svg2"
   version="1.1"
   inkscape:version="0.91 r13725"
   viewBox="0 0 8 8"
   sodipodi:docname="emblem-locked.svg">
  <defs
     id="defs4" />
  <sodipodi:namedview
     id="base"
     pagecolor="#ffffff"
     bordercolor="#666666"
     borderopacity="1.0"
     inkscape:pageopacity="0.0"
     inkscape:pageshadow="2"
     inkscape:zoom="92"
     inkscape:cx="-0.95256913"
     inkscape:cy="2.2126549"
     inkscape:document-units="px"
     inkscape:current-layer="layer1"
     showgrid="true"
     inkscape:showpageshadow="false"
     borderlayer="true"
     units="px"
     inkscape:window-width="1366"
     inkscape:window-height="633"
     inkscape:window-x="0"
     inkscape:window-y="33"
     inkscape:window-maximized="1"
     inkscape:snap-bbox="true"
     showguides="false"
     fit-margin-top="0"
     fit-margin-left="0"
     fit-margin-right="0"
     fit-margin-bottom="0">
    <inkscape:grid
       type="xygrid"
       id="grid4062"
       originx="-7"
       originy="-7.0000174" />
  </sodipodi:namedview>
  <metadata
     id="metadata7">
    <rdf:RDF>
      <cc:Work
         rdf:about="">
        <dc:format>image/svg+xml</dc:format>
        <dc:type
           rdf:resource="http://purl.org/dc/dcmitype/StillImage" />
        <dc:title />
      </cc:Work>
    </rdf:RDF>
  </metadata>
  <g
     inkscape:label="Capa 1"
     inkscape:groupmode="layer"
     id="layer1"
     transform="translate(-7,-1037.3622)">
    <path
       style="opacity:1;fill:#ffffff;fill-opacity:1;stroke:none"
       d="M 1 0 C 0.44598072 0 0 0.44598072 0 1 L 0 7 C 0 7.5540193 0.44598072 8 1 8 L 7 8 C 7.5540193 8 8 7.5540193 8 7 L 8 1 C 8 0.44598072 7.5540193 0 7 0 L 1 0 z M 4 1.125 C 4.9689276 1.125 5.7578125 1.9120188 5.7578125 2.8808594 L 5.7578125 3.5957031 C 5.8962902 3.6248621 6 3.747456 6 3.8945312 L 6 6.5703125 C 6 6.7387689 5.8638505 6.875 5.6953125 6.875 L 2.3046875 6.875 C 2.1361491 6.875 2 6.7387689 2 6.5703125 L 2 3.8945312 C 2 3.747456 2.1037108 3.62451 2.2421875 3.5957031 L 2.2421875 2.8808594 C 2.2421875 1.9120188 3.0310741 1.125 4 1.125 z M 4 1.7363281 C 3.3681504 1.7363281 2.8535156 2.2489957 2.8535156 2.8808594 L 2.8535156 3.5898438 L 5.1464844 3.5898438 L 5.1464844 2.8808594 C 5.1464844 2.2490277 4.6318505 1.7363281 4 1.7363281 z M 4 4.5292969 C 3.763194 4.5292969 3.5703125 4.7201104 3.5703125 4.9570312 C 3.5703125 5.0825974 3.6249559 5.1950507 3.7109375 5.2734375 L 3.5976562 5.8769531 C 3.5914207 5.9104652 3.6128635 5.9355469 3.6464844 5.9355469 L 4.3613281 5.9355469 C 4.3949493 5.9355469 4.4163881 5.9104972 4.4101562 5.8769531 L 4.2949219 5.2675781 C 4.3768516 5.1894474 4.4296875 5.0791406 4.4296875 4.9570312 C 4.4296875 4.7201104 4.2368072 4.5292969 4 4.5292969 z "
       transform="translate(7,1037.3622)"
       id="rect4153" />
    <g
       transform="matrix(0.32007682,0,0,0.32007682,7.4735536,708.02975)"
       id="layer1-6"
       inkscape:label="Capa 1"
       style="fill:#ffffff;fill-opacity:1" />
  </g>
</svg>

<svg xmlns="http://www.w3.org/2000/svg" viewBox="0 0 8 8"><path d="m1 0c-.554 0-1 .446-1 1v6c0 .554.446 1 1 1h6c.554 0 1-.446 1-1v-6c0-.554-.446-1-1-1h-6m3 1.125c.969 0 1.758.787 1.758 1.756v.715c.138.029.242.152.242.299v2.676c0 .168-.136.305-.305.305h-3.391c-.169 0-.305-.136-.305-.305v-2.676c0-.147.104-.27.242-.299v-.715c0-.969.789-1.756 1.758-1.756m0 .611c-.632 0-1.146.513-1.146 1.145v.709h2.293v-.709c0-.632-.515-1.145-1.146-1.145m0 2.793c-.237 0-.43.191-.43.428 0 .126.055.238.141.316l-.113.604c-.006.034.015.059.049.059h.715c.034 0 .055-.025.049-.059l-.115-.609c.082-.078.135-.188.135-.311 0-.237-.193-.428-.43-.428" fill="#fff"/></svg>
